X: 1
T: String Quartet in C Major opus 74 no 1 mvt 3
C: Franz Joseph Haydn
%%abc-version 2.0
%%abcx-abcm2ps-target-version 5.9.1 (29 Sep 2008)
%%abc-creator hum2abc beta
%%abcx-conversion-date 2021/02/14 14:38:21
%%abc-copyright Copyright (c) 1994, 2000 Center for Computer Assisted Research in the Humanities
%%abc-edited-by Frances Bennion
%%abcx-initial-encoding-date 1997/04/15
%%gracespace 0 6 6
%%humdrum-veritas 596480301
%%humdrum-veritas-data 3151780027
%%linebreak <none>
%%barnumbers 0
L: 1/4
M: 3/4
N: Derived from op74n1-03.krn
Q: "Menuetto: Allegretto"
%%staves [1 2 3 4]
V: 1
V: 2
V: 3 clef=alto
V: 4 clef=bass
K: C
[V:1]E3 [I:setbarnb2] |
[V:2]C3 |
[V:3]G,2 C |
[V:4]C,, C, C, |
[V:1]F3 |
[V:2]D3 |
[V:3]B, G, F, |
[V:4]C,, C, C, |
[V:1]G2 c/A/ |
[V:2]E2 A/F/ |
[V:3]E, C F,/A,/ |
[V:4]C,, C, C, |
[V:1]G c c |
[V:2]E z z |
[V:3]C z z |
[V:4]C,, z z |
[V:1]c3- |
[V:2]E F G |
[V:3]C D E |
[V:4]z3 |
[V:1]c ^c d- |
[V:2]A3 |
[V:3]F3 |
[V:4]z3 |
[V:1]d f B |
[V:2]B3 |
[V:3]G3 |
[V:4]z3 |
[V:1]c3- |
[V:2]E F G |
[V:3]C D E |
[V:4]z3 |
[V:1]c ^c d- |
[V:2]A3- |
[V:3]F3 |
[V:4]z3 |
[V:1]d e c |
[V:2]A3 |
[V:3]^F3 |
[V:4]z3 |
[V:1]B (3^f/g/a/ g |
[V:2]B c B |
[V:3]G (3A/G/^F/ G |
[V:4]G, D G, |
[V:1](3^f/g/a/ g (3f/g/a/ |
[V:2]c B c |
[V:3](3A/G/^F/ G (3A/G/F/ |
[V:4]D G, D |
[V:1]g g g |
[V:2]B B B |
[V:3]G D D |
[V:4]G, D, B,, |
[V:1]g z z |
[V:2]B z z |
[V:3]D z z |
[V:4]G,, z z |
[V:1]_A,3 |
[V:2]z3 |
[V:3]z3 |
[V:4]_A,, _E, C, |
[V:1]C3 |
[V:2]_A,3 |
[V:3]z3 |
[V:4]_A,, _E, C, |
[V:1]_E3 |
[V:2]C3 |
[V:3]_A,3 |
[V:4]_A,, _E, _G,, |
[V:1]_G2 _E/C/ |
[V:2][_E3C3] |
[V:3]A,3 |
[V:4]F,,3 |
[V:1]_B,3 |
[V:2]_D z z |
[V:3]_B, z z |
[V:4]_B,, F, _D, |
[V:1]_D3 |
[V:2]_B,3 |
[V:3]z3 |
[V:4]_B,, F, _D, |
[V:1]F3 |
[V:2]_D3 |
[V:3]_B,3 |
[V:4]_B,, F, _A,, |
[V:1]_A2 F/D/ |
[V:2][F3D3] |
[V:3]B,3 |
[V:4]G,,3 |
[V:1]_E3 |
[V:2]_E3 |
[V:3]C3 |
[V:4]C, G, _E, |
[V:1]G3 |
[V:2]_D3 |
[V:3]_B,3 |
[V:4]_B,, G, _E, |
[V:1]c2 c//B//c//d// |
[V:2]C G _E |
[V:3]_A,2 G, |
[V:4]_A,, A,, A,, |
[V:1]_e2 ^F |
[V:2]C B, C |
[V:3]^F,2 C |
[V:4]_A,, A,, A,, |
[V:1]G ^f/g/ _e/c/ |
[V:2]B, z C/_E/ |
[V:3]D z ^F, |
[V:4]G,, z z |
[V:1]B/d/ ^f/g/ _e/c/ |
[V:2]D z C/_E/ |
[V:3]G, z ^F, |
[V:4]G,, z z |
[V:1]B/d/ ^f/g/ _e/c/ |
[V:2]D z ^F |
[V:3]G, z C,/_E,/ |
[V:4]G,, z z |
[V:1]G ^F/G/ F/G/ |
[V:2]G z z |
[V:3]D, z z |
[V:4]G,, z z |
[V:1]^G/A/ G/A/ F/D/ |
[V:2]z3 |
[V:3]z3 |
[V:4]z3 |
[V:1]E3 |
[V:2]C3 |
[V:3]G,2 C |
[V:4]C,, C, C, |
[V:1]F3 |
[V:2]D3 |
[V:3]B, G, F, |
[V:4]C,, C, C, |
[V:1]G2 c/A/ |
[V:2]E2 A/F/ |
[V:3]E, C F,/A,/ |
[V:4]C,, C, C, |
[V:1]G c c |
[V:2]E z z |
[V:3]C z z |
[V:4]C,, z z |
[V:1]c3- |
[V:2]E F G |
[V:3]C D E |
[V:4]z3 |
[V:1]c ^c d- |
[V:2]A3 |
[V:3]F3 |
[V:4]z3 |
[V:1]d f B |
[V:2]B3 |
[V:3]G3 |
[V:4]z3 |
[V:1]c3- |
[V:2]E F G |
[V:3]C D E |
[V:4]z3 |
[V:1]c _d d- |
[V:2]_A3 |
[V:3]F3 |
[V:4]z3 |
[V:1]d f _B |
[V:2]_B3 |
[V:3]G3 |
[V:4]_E3 |
[V:1]c _e _a- |
[V:2]c3 |
[V:3]_A3 |
[V:4]_A,3 |
[V:1]a g _b- |
[V:2]_B2 _d |
[V:3]_E2 =E |
[V:4]_E,2 =E, |
[V:1]b a c'- |
[V:2]c2 _e |
[V:3]F2 ^F |
[V:4]F,2 ^F, |
[V:1]c' b ^f |
[V:2]d2 c |
[V:3]G G, A, |
[V:4]G,3- |
[V:1]g g/a/ b/c'/ |
[V:2]d f e |
[V:3]B, d c |
[V:4]G,3- |
[V:1]d' b/c'/ d'/e'/ |
[V:2]d F E |
[V:3]B D C |
[V:4]G,3- |
[V:1]f' f' f' |
[V:2]D C D |
[V:3]B, A, B, |
[V:4]G,3 |
[V:1]e'/g'/ f'/e'/ d'/c'/ |
[V:2]E3 |
[V:3]C3 |
[V:4]C,, C, C, |
[V:1]b/a/ g/f/ e/d/ |
[V:2]F3 |
[V:3]D3 |
[V:4]C,, C, C, |
[V:1]c/e/ d/c/ B/A/ |
[V:2]G2 F |
[V:3]E2 F |
[V:4]C,, C, C, |
[V:1]G/e/ d/c/ B/A/ |
[V:2]E2 F |
[V:3]E z z |
[V:4]C,, C, C, |
[V:1]G/g/ f/e/ d/c/ |
[V:2]E3 |
[V:3]C3 |
[V:4]C,, C, C, |
[V:1]B/A/ ^g/a/ f/d/ |
[V:2]F z A/F/ |
[V:3]C2 z |
[V:4]F,, F, F, |
[V:1]c2 d |
[V:2]E2 B |
[V:3]z G F |
[V:4]G,, G, G, |
[V:1](3g/a/_b/ a (3e/f/g/ |
[V:2]c2 A- |
[V:3]E F A |
[V:4]E, F, ^C |
[V:1]f (3d/e/f/ e/z/ |
[V:2]A d G |
[V:3]d G c |
[V:4]D B, C |
[V:1](3d/e/f/ (3A/B/c/ (3B/c/d/ |
[V:2]A z F |
[V:3]F z D |
[V:4]F, z G, |
[V:1]c c c |
[V:2]E E E |
[V:3]E G, G, |
[V:4]C, G,, E,, |
[V:1]c z z |
[V:2]E z z |
[V:3]G, z z |
[V:4]C,, z z |
[V:1]^c3 |
[V:2]^C3 |
[V:3]A,3 |
[V:4]A,, A,, A,, |
[V:1]d ^c d |
[V:2]D ^C D |
[V:3]B, A, B, |
[V:4]A,, A,, A,, |
[V:1]e3- |
[V:2]E E E |
[V:3]^C C C |
[V:4]A,, A,, A,, |
[V:1]e ^g a |
[V:2]E z z |
[V:3]^C z z |
[V:4]A,, z z |
[V:1]e3 |
[V:2]^F3 |
[V:3]D3 |
[V:4]A,, A, A, |
[V:1]d ^c d |
[V:2]^G3 |
[V:3]B,3 |
[V:4]A, A, A, |
[V:1]^c3- |
[V:2]A E E |
[V:3]^C C C |
[V:4]A, A, A, |
[V:1]c ^d e |
[V:2]E z z |
[V:3]^C z z |
[V:4]A, z z |
[V:1]e3- |
[V:2]E E E |
[V:3]B, B, B, |
[V:4]^G, G, G, |
[V:1]e ^f ^g |
[V:2]E z z |
[V:3]B, z z |
[V:4]^G, z z |
[V:1]a b ^c' |
[V:2]E z z |
[V:3]A, z z |
[V:4]^F, z z |
[V:1]B ^c ^d |
[V:2]^D z A, |
[V:3][A,^F] z z |
[V:4]B, z z |
[V:1]e e e |
[V:2]^G, G, G, |
[V:3]E B, ^G, |
[V:4]E, E, E, |
[V:1]e2 d |
[V:2]^G,2 B, |
[V:3]E, z z |
[V:4]E, z z |
[V:1]e2 ^e |
[V:2]^G, z z |
[V:3]E, z z |
[V:4]E, z z |
[V:1]^f3 |
[V:2]A,3 |
[V:3]^F3 |
[V:4]D, D, D, |
[V:1]^g ^f g |
[V:2]D3 |
[V:3]E3 |
[V:4]B,, B,, B,, |
[V:1]a3- |
[V:2]E E E |
[V:3]E A, A, |
[V:4]^C, C, C, |
[V:1]a ^c e |
[V:2]E z z |
[V:3]A, z z |
[V:4]^C, z z |
[V:1]e d d |
[V:2]B3 |
[V:3]E3- |
[V:4]^G,3 |
[V:1]d ^c c |
[V:2]B A A |
[V:3]E3 |
[V:4]A,3 |
[V:1]^c B B |
[V:2]A ^G G |
[V:3]E E E |
[V:4]E,3- |
[V:1]B2 ^B |
[V:2]^G3 |
[V:3]E2 D |
[V:4]E,3 |
[V:1]^c3 |
[V:2]A3 |
[V:3]^C3 |
[V:4]A,, A, A, |
[V:1]d ^c d |
[V:2]B A B |
[V:3]D ^C D |
[V:4]A, A, A, |
[V:1]e3- |
[V:2]^c c c |
[V:3]E3- |
[V:4]A,, A, A, |
[V:1]e ^g a |
[V:2]^c z z |
[V:3]E ^G A |
[V:4]A, z z |
[V:1]^f3- |
[V:2]d d d |
[V:3]^F3- |
[V:4]A,, A, A, |
[V:1]f ^g a |
[V:2]d z z |
[V:3]F ^G A |
[V:4]A, z z |
[V:1]e a ^c' |
[V:2]^c c c |
[V:3]E E E |
[V:4]A, A, A, |
[V:1]e' z z |
[V:2]^c z z |
[V:3]E z z |
[V:4]A, z z |
[V:1]^f a d' |
[V:2]d A A |
[V:3]^F F F |
[V:4]D, D, D, |
[V:1]^f' z z |
[V:2]A z z |
[V:3]^F z z |
[V:4]D, z z |
[V:1]e' ^c' a |
[V:2]^c z z |
[V:3]A, z z |
[V:4]E, z z |
[V:1]e ^f ^g |
[V:2]B z z |
[V:3]D z z |
[V:4]E, z z |
[V:1]a a a |
[V:2]A E E |
[V:3]^C C C |
[V:4]A,, A,, A,, |
[V:1]a z z |
[V:2]E z z |
[V:3]^C z z |
[V:4]A,, z z |
[V:1]B3 |
[V:2]^G3 |
[V:3]E E E |
[V:4]z3 |
[V:1]c B c |
[V:2]A ^G A |
[V:3]^D D D |
[V:4]z3 |
[V:1]B3- |
[V:2]^G3- |
[V:3]E E E |
[V:4]z3 |
[V:1]B e d |
[V:2]G z z |
[V:3]E z z |
[V:4]z3 |
[V:1]c3- |
[V:2]^D3- |
[V:3]A, ^G, A, |
[V:4]E, E, E, |
[V:1]c B A |
[V:2]D2 A |
[V:3]A, B, C |
[V:4]E, E, E, |
[V:1]e3 |
[V:2]^G A B |
[V:3]B, A, ^G, |
[V:4]E, E, E, |
[V:1]c B A |
[V:2]^D2 A |
[V:3]A, B, C |
[V:4]E, E, E, |
[V:1]e3 |
[V:2]^G A B |
[V:3]B, A, ^G, |
[V:4]E, E, E, |
[V:1]c B A |
[V:2]^D2 A |
[V:3]A, B, C |
[V:4]E, E, E, |
[V:1]e e e |
[V:2]^G z z |
[V:3]B, z z |
[V:4]E, z z |
[V:1]z B B |
[V:2]B, z z |
[V:3]^G, z z |
[V:4]E, z z |
[V:1]z ^G G |
[V:2]B, z z |
[V:3]^G, z z |
[V:4]E, z z |
[V:1]z E E |
[V:2]B, z z |
[V:3]^G, z z |
[V:4]E, z z |
[V:1]E3- |
[V:2]B, z z |
[V:3]^G, z z |
[V:4]E, z z |
[V:1]E3 |]
[V:2]z3 |]
[V:3]z3 |]
[V:4]z3 |]

